public/avatar/shoe/112.svg

<svg xmlns:xlink="http://www.w3.org/1999/xlink" height="38.3" width="36.05" xmlns="http://www.w3.org/2000/svg"><use height="23.45" transform="translate(5.2 9.05)" width="27.8" xlink:href="#a"/><defs><g id="a"><path d="M-14.45 15.95q-1.7 0-2.95-1.15-1.2-1.2-1.2-2.8 0-3.95 4.15-3.95 1.75 0 2.95 1.15 1.25 1.1 1.25 2.8 0 1.6-1.25 2.8-1.2 1.15-2.95 1.15" fill="#49022e" fill-rule="evenodd" transform="translate(18.6 5.8)"/><path d="M-17.65 12q0-3 3.2-3t3.2 3q0 3-3.2 3t-3.2-3" fill="#fff" fill-rule="evenodd" transform="translate(18.6 5.8)"/><path d="m-17.4 13.15 2.4.45q-1.3-2.7 1.7-4.4 2.05.7 2.05 2.8 0 3-3.2 3-2.1 0-2.95-1.85" fill="#ffb0ff" fill-rule="evenodd" transform="translate(18.6 5.8)"/><path d="M6.65 15.2q-3.1-.6-3.5 2.6-.45 3.1 2.9 2.9" fill="none" stroke="#49022e" stroke-linecap="round" stroke-linejoin="round" stroke-width=".4"/><path d="m-7.75 15-6-1.55q-.95-.35-.7-1.65.2-1 1.1-1h.05l6.7 1.25.2.15q.65.95-1.1 2.7l-.25.1" fill="#03102a" fill-rule="evenodd" transform="translate(18.6 5.8)"/><path d="M-13.55 12.95q-.6-.3-.4-1 .1-.65.6-.65l6.75 1q.45.7-.9 2.2l-6.05-1.55" fill="#243c89" fill-rule="evenodd" transform="translate(18.6 5.8)"/><path d="m4.4 10.5.15.1q.5.8-1.05 2.7l-.25.1-6.05-1.5q-.95-.4-.75-1.65.3-1.15 1.15-1l6.8 1.25" fill="#03102a" fill-rule="evenodd" transform="translate(18.6 5.8)"/><path d="M4.35 10.75q.45.7-.85 2.2l-6.05-1.55q-.6-.3-.5-1 .2-.7.6-.75l6.8 1.1" fill="#243c89" fill-rule="evenodd" transform="translate(18.6 5.8)"/><path d="M-5.75-3.9q1.8-.95 5.05-1.15Q3.6-5.2 5.15-2.9 6.5-.7 6.55 4.2q.05 4.55-.65 5.15-1.45 1.15-7.35 1.95-7.35.95-13.4-.85l-.4-.35q-.75-4 .4-4.95l-.1.15 4.1-4.35 5.1-4.85" fill="#49022e" fill-rule="evenodd" transform="translate(18.6 5.8)"/><path d="M-.7-4.2q3.65-.25 4.95 1.85 2.1 3.3.9 11-1.5 1.05-6.75 1.8-6.85.85-12.65-.9-.6-2.35.15-3.55Q-9.45.2-5.2-3.05-3.45-4-.7-4.2" fill="#fff" fill-rule="evenodd" transform="translate(18.6 5.8)"/><path d="M-10.6 8q1.95.2 3.35-.55 2.75-1.55 3.6 0 .8 1.65-1 3.25-4.95.2-9.25-1.05l-.3-2.4q.1-.95.45-1.15.4-.15.7.55.4 1.05 2.45 1.35m13-.6Q4.35 6 4.5 5.15q2 .65.15 3.6l-.1.2q-1.3.6-3.95 1.15-.1-1.3 1.8-2.7" fill="#ffb0ff" fill-rule="evenodd" transform="translate(18.6 5.8)"/><path d="M6.35 2.15Q6.9 4 6.05 4.3 2.95 4.3 1.2 6 .25 6.95.15 8.4q3.3-.05 6.15-1.85l.25-.05.1.2-.6 2.85q-11.4 4.45-21.4.9l-.2-.15q-.9-1.8-.1-2.75l.3-.05q6.8 1.9 12.3 1.2l.1-.9q0-1.15-.45-1.7-.8-1.05-2.35-1.1l-.05-.1-.45-.65.15-.35q.55-1.25 1.6-.95l.2.05Q.2 4.9 5.45 1.2l.2-.05q.55 0 .7 1" fill="#03102a" fill-rule="evenodd" transform="translate(18.6 5.8)"/><path d="M5.45 8.8Q3.9 9.9-.9 10.5q-6.9.95-13.85-.85-.85-.4-.2-1.2Q-9.9 10.4-2.15 9.5q.4-1.7-.1-3.25-.7-1.85-2.6-2.05-2.15-1.3.05-.8 3.45 2.55 9.75-1.05.5 1.05 0 1.25-5.65.7-5.6 5.7 3.65.05 6.55-2l-.45 1.5" fill="#0075d6" fill-rule="evenodd" transform="translate(18.6 5.8)"/><path d="m-10-.3.05-.05Q-5.7-2.2-2.85.95q.65.65.35 1.2l-5 4.7q-.3.35-.65 0-1.3-1.2-3.35-1.5l-2.65.1-.6-.05q-.25-.4 0-.65Q-12.7 1.9-10-.3" fill="#03102a" fill-rule="evenodd" transform="translate(18.6 5.8)"/><path d="m-3.55 1.75-4.3 4.05q-3.3-2-5.4-1.35Q-11.05 1.9-9.1.3-6.6-.85-4.75.25q1.65.95 1.2 1.5" fill="#d80000" fill-rule="evenodd" transform="translate(18.6 5.8)"/><path d="m-3.55 1.75-4.3 4.05q-3.3-2-5.4-1.35Q-11.05 1.9-9.1.3-6.6-.85-4.75.25q1.65.95 1.2 1.5" fill="#0075d6" fill-rule="evenodd" transform="translate(18.6 5.8)"/><path d="M4.1-5.8h.25q1.9.15 2.1 1.7v.25q0 .75-.7 1.2 1.5.85 1.5 1.75v.05q-.05 1.5-4.2 2.9-5.3 1.5-7 .05-3.1-2.15-6.25-1h-.4l-.3-.25-.25-.95q0-.75.6-1.35Q-10-1.9-9-2.2q-1-.6-1-1.45l.05-.3q.35-1.45 2.5-1.45l.2.05 5.15.3q4.05-.1 6.2-.75" fill="#49022e" fill-rule="evenodd" transform="translate(18.6 5.8)"/><path d="M4.45-2.6q4 1.8-1.5 3.7l-6.05.3Q-6.3-.8-9.9.05q-.25-.95.9-1.6Q-7.9-2.1-6.6-2q-1.8-.3-1.95-1.3-.2-1 .9-1.2l5.5.35 6.35-.7q1.2.25 1.25 1.15.1.8-1 1.1" fill="#ff6eba" fill-rule="evenodd" transform="translate(18.6 5.8)"/><path d="M2.55-3q1-.65.9-1.7l.75-.15q1.2.25 1.25 1.15.1.8-1 1.1 4 1.8-1.5 3.7l-6.05.3Q-6.3-.8-9.9.05v-.1l2.95-.5 4.2.45q5.35.65 5-1.15-3.8.6-5.6 0Q.3-1.25 2.55-3" fill="#ba45ad" fill-rule="evenodd" transform="translate(18.6 5.8)"/><path d="M-5.2 17.65q-1.7 0-2.95-1.15-1.2-1.2-1.2-2.8 0-1.7 1.2-2.85 1.25-1.2 2.95-1.2 1.75 0 2.95 1.2Q-1 12-1 13.7q0 1.6-1.25 2.8-1.2 1.15-2.95 1.15" fill="#49022e" fill-rule="evenodd" transform="translate(18.6 5.8)"/><path d="M-8.4 13.7q0-3.1 3.2-3.1 3.15 0 3.15 3.1 0 3-3.15 3-3.2 0-3.2-3" fill="#fff" fill-rule="evenodd" transform="translate(18.6 5.8)"/><path d="m-8.1 14.95 2.05.25q0-3.7 2.4-4.15 1.6.85 1.6 2.65 0 3-3.15 3-2 0-2.9-1.75" fill="#ffb0ff" fill-rule="evenodd" transform="translate(18.6 5.8)"/><path d="M15.9 16.9q-3.1-.6-3.55 2.6-.4 3.1 2.95 2.85" fill="none" stroke="#49022e" stroke-linecap="round" stroke-linejoin="round" stroke-width=".4"/><path d="M5 15.55q-1.7 0-2.95-1.15-1.2-1.2-1.2-2.8 0-4 4.15-4 4.2 0 4.2 4 0 1.6-1.2 2.8-1.25 1.15-3 1.15" fill="#49022e" fill-rule="evenodd" transform="translate(18.6 5.8)"/><path d="M1.8 11.6q0-3 3.2-3 3.15 0 3.15 3T5 14.6q-3.2 0-3.2-3" fill="#fff" fill-rule="evenodd" transform="translate(18.6 5.8)"/><path d="m2.1 12.9 2.05.25q0-3.65 2.4-4.15 1.6.85 1.6 2.65 0 3-3.15 3-2 0-2.9-1.75" fill="#ffb0ff" fill-rule="evenodd" transform="translate(18.6 5.8)"/><path d="M26.1 14.8q-3.05-.6-3.45 2.6-.5 3.1 2.85 2.85" fill="none" stroke="#49022e" stroke-linecap="round" stroke-linejoin="round" stroke-width=".4"/><path d="M-8.4-2.8Q-8.8-4.55-5.55-4l7.6-.25Q.5-2.4-2.25-2.5l-3.2-.5-2.95.2" fill="#ffe3e3" fill-rule="evenodd" transform="translate(18.6 5.8)"/><path d="M2.1 3.85v.25Q.45 4.6-.45 5.65q-.6.7-.8 1.55l-.05.9q-.05.55-.55.55.2-1.1 0-2.3-1.1-1.8-.9-1.95l2.3.05 2.55-.6" fill="#8af1ff" fill-rule="evenodd" transform="translate(18.6 5.8)"/><path d="M-1.55 6.05q-.95-.7-.7-1.2L-1 4.9l-.55 1.15" fill="#fff" fill-rule="evenodd" transform="translate(18.6 5.8)"/><path d="M-11.2 2.35q.7-1.1 1.25-1.25 1.4-.55 4.8 1.3l-1.6.25-1.4-.2q-1.6.25-2.2.75-1.15.8-1.6.75-.05-.55.75-1.6" fill="#8af1ff" fill-rule="evenodd" transform="translate(18.6 5.8)"/><path d="m-8.25 1.4-1.8.95-1.1.85-.1-.75q.1-.55 1.35-1.05t1.65 0" fill="#fff" fill-rule="evenodd" transform="translate(18.6 5.8)"/></g></defs></svg>

<?xml version="1.0" encoding="UTF-8" standalone="no"?>
<svg xmlns:xlink="http://www.w3.org/1999/xlink" height="38.3px" width="36.05px" xmlns="http://www.w3.org/2000/svg">
  <g transform="matrix(1.0, 0.0, 0.0, 1.0, 23.8, 14.85)">
    <use height="23.45" transform="matrix(1.0, 0.0, 0.0, 1.0, -18.6, -5.8)" width="27.8" xlink:href="#shape0"/>
  </g>
  <defs>
    <g id="shape0" transform="matrix(1.0, 0.0, 0.0, 1.0, 18.6, 5.8)">
      <path d="M-14.45 15.95 Q-16.15 15.95 -17.4 14.8 -18.6 13.6 -18.6 12.0 -18.6 8.05 -14.45 8.05 -12.7 8.05 -11.5 9.2 -10.25 10.3 -10.25 12.0 -10.25 13.6 -11.5 14.8 -12.7 15.95 -14.45 15.95" fill="#49022e" fill-rule="evenodd" stroke="none"/>
      <path d="M-17.65 12.0 Q-17.65 9.0 -14.45 9.0 -11.25 9.0 -11.25 12.0 -11.25 15.0 -14.45 15.0 -17.65 15.0 -17.65 12.0" fill="#ffffff" fill-rule="evenodd" stroke="none"/>
      <path d="M-17.4 13.15 L-15.0 13.6 Q-16.3 10.9 -13.3 9.2 -11.25 9.9 -11.25 12.0 -11.25 15.0 -14.45 15.0 -16.55 15.0 -17.4 13.15" fill="#ffb0ff" fill-rule="evenodd" stroke="none"/>
      <path d="M-11.95 9.4 Q-15.05 8.8 -15.45 12.0 -15.9 15.1 -12.55 14.9" fill="none" stroke="#49022e" stroke-linecap="round" stroke-linejoin="round" stroke-width="0.4"/>
      <path d="M-7.75 15.0 L-13.75 13.45 Q-14.7 13.1 -14.45 11.8 -14.25 10.8 -13.35 10.8 L-13.3 10.8 -6.6 12.05 -6.4 12.2 Q-5.75 13.15 -7.5 14.9 L-7.75 15.0" fill="#03102a" fill-rule="evenodd" stroke="none"/>
      <path d="M-13.55 12.95 Q-14.15 12.65 -13.95 11.95 -13.85 11.3 -13.35 11.3 L-6.6 12.3 Q-6.15 13.0 -7.5 14.5 L-13.55 12.95" fill="#243c89" fill-rule="evenodd" stroke="none"/>
      <path d="M4.4 10.5 L4.55 10.6 Q5.05 11.4 3.5 13.3 L3.25 13.4 -2.8 11.9 Q-3.75 11.5 -3.55 10.25 -3.25 9.1 -2.4 9.25 L4.4 10.5" fill="#03102a" fill-rule="evenodd" stroke="none"/>
      <path d="M4.35 10.75 Q4.8 11.45 3.5 12.95 L-2.55 11.4 Q-3.15 11.1 -3.05 10.4 -2.85 9.7 -2.45 9.65 L4.35 10.75" fill="#243c89" fill-rule="evenodd" stroke="none"/>
      <path d="M-5.75 -3.9 Q-3.95 -4.85 -0.7 -5.05 3.6 -5.2 5.15 -2.9 6.5 -0.7 6.55 4.2 6.6 8.75 5.9 9.35 4.45 10.5 -1.45 11.3 -8.8 12.25 -14.85 10.45 L-15.25 10.1 Q-16.0 6.1 -14.85 5.15 L-14.95 5.3 -10.85 0.95 -5.75 -3.9" fill="#49022e" fill-rule="evenodd" stroke="none"/>
      <path d="M-0.7 -4.2 Q2.95 -4.45 4.25 -2.35 6.35 0.95 5.15 8.65 3.65 9.7 -1.6 10.45 -8.45 11.3 -14.25 9.55 -14.85 7.2 -14.1 6.0 -9.45 0.2 -5.2 -3.05 -3.45 -4.0 -0.7 -4.2" fill="#ffffff" fill-rule="evenodd" stroke="none"/>
      <path d="M-10.6 8.0 Q-8.65 8.2 -7.25 7.45 -4.5 5.9 -3.65 7.45 -2.85 9.1 -4.65 10.7 -9.6 10.9 -13.9 9.65 L-14.2 7.25 Q-14.1 6.3 -13.75 6.1 -13.35 5.95 -13.05 6.65 -12.65 7.7 -10.6 8.0" fill="#ffb0ff" fill-rule="evenodd" stroke="none"/>
      <path d="M2.4 7.4 Q4.35 6.0 4.5 5.15 6.5 5.8 4.65 8.75 L4.55 8.95 Q3.25 9.55 0.6 10.1 0.5 8.8 2.4 7.4" fill="#ffb0ff" fill-rule="evenodd" stroke="none"/>
      <path d="M6.35 2.15 Q6.9 4.0 6.05 4.3 2.95 4.3 1.2 6.0 0.25 6.95 0.15 8.4 3.45 8.35 6.3 6.55 L6.55 6.5 6.65 6.7 6.05 9.55 Q-5.35 14.0 -15.35 10.45 L-15.55 10.3 Q-16.45 8.5 -15.65 7.55 L-15.35 7.5 Q-8.55 9.4 -3.05 8.7 L-2.95 7.8 Q-2.95 6.65 -3.4 6.1 -4.2 5.05 -5.75 5.0 L-5.8 4.9 -6.25 4.25 -6.1 3.9 Q-5.55 2.65 -4.5 2.95 L-4.3 3.0 Q0.2 4.9 5.45 1.2 L5.65 1.15 Q6.2 1.15 6.35 2.15" fill="#03102a" fill-rule="evenodd" stroke="none"/>
      <path d="M5.45 8.8 Q3.9 9.9 -0.9 10.5 -7.8 11.45 -14.75 9.65 -15.6 9.25 -14.95 8.45 -9.9 10.4 -2.15 9.5 -1.75 7.8 -2.25 6.25 -2.95 4.4 -4.85 4.2 -7.0 2.9 -4.8 3.4 -1.35 5.95 4.95 2.35 5.45 3.4 4.95 3.6 -0.7 4.3 -0.65 9.3 3.0 9.35 5.9 7.3 L5.45 8.8" fill="#0075d6" fill-rule="evenodd" stroke="none"/>
      <path d="M-10.0 -0.3 L-9.95 -0.35 Q-5.7 -2.2 -2.85 0.95 -2.2 1.6 -2.5 2.15 L-7.5 6.85 Q-7.8 7.2 -8.15 6.85 -9.45 5.65 -11.5 5.35 L-14.15 5.45 -14.75 5.4 Q-15.0 5.0 -14.75 4.75 -12.7 1.9 -10.0 -0.3" fill="#03102a" fill-rule="evenodd" stroke="none"/>
      <path d="M-3.55 1.75 L-7.85 5.8 Q-11.15 3.8 -13.25 4.45 -11.05 1.9 -9.1 0.3 -6.6 -0.85 -4.75 0.25 -3.1 1.2 -3.55 1.75" fill="#d80000" fill-rule="evenodd" stroke="none"/>
      <path d="M-3.55 1.75 L-7.85 5.8 Q-11.15 3.8 -13.25 4.45 -11.05 1.9 -9.1 0.3 -6.6 -0.85 -4.75 0.25 -3.1 1.2 -3.55 1.75" fill="#0075d6" fill-rule="evenodd" stroke="none"/>
      <path d="M4.1 -5.8 L4.35 -5.8 Q6.25 -5.65 6.45 -4.1 L6.45 -3.85 Q6.45 -3.1 5.75 -2.65 7.25 -1.8 7.25 -0.9 L7.25 -0.85 Q7.2 0.65 3.05 2.05 -2.25 3.55 -3.95 2.1 -7.05 -0.05 -10.2 1.1 L-10.6 1.1 -10.9 0.85 -11.15 -0.1 Q-11.15 -0.85 -10.55 -1.45 -10.0 -1.9 -9.0 -2.2 -10.0 -2.8 -10.0 -3.65 L-9.95 -3.95 Q-9.6 -5.4 -7.45 -5.4 L-7.25 -5.35 -2.1 -5.05 Q1.95 -5.15 4.1 -5.8" fill="#49022e" fill-rule="evenodd" stroke="none"/>
      <path d="M4.45 -2.6 Q8.45 -0.8 2.95 1.1 L-3.1 1.4 Q-6.3 -0.8 -9.9 0.05 -10.15 -0.9 -9.0 -1.55 -7.9 -2.1 -6.6 -2.0 -8.4 -2.3 -8.55 -3.3 -8.75 -4.3 -7.65 -4.5 L-2.15 -4.15 4.2 -4.85 Q5.4 -4.6 5.45 -3.7 5.55 -2.9 4.45 -2.6" fill="#ff6eba" fill-rule="evenodd" stroke="none"/>
      <path d="M2.55 -3.0 Q3.55 -3.65 3.45 -4.7 L4.2 -4.85 Q5.4 -4.6 5.45 -3.7 5.55 -2.9 4.45 -2.6 8.45 -0.8 2.95 1.1 L-3.1 1.4 Q-6.3 -0.8 -9.9 0.05 L-9.9 -0.05 -6.95 -0.55 -2.75 -0.1 Q2.6 0.55 2.25 -1.25 -1.55 -0.65 -3.35 -1.25 0.3 -1.25 2.55 -3.0" fill="#ba45ad" fill-rule="evenodd" stroke="none"/>
      <path d="M-5.2 17.65 Q-6.9 17.65 -8.15 16.5 -9.35 15.3 -9.35 13.7 -9.35 12.0 -8.15 10.85 -6.9 9.65 -5.2 9.65 -3.45 9.65 -2.25 10.85 -1.0 12.0 -1.0 13.7 -1.0 15.3 -2.25 16.5 -3.45 17.65 -5.2 17.65" fill="#49022e" fill-rule="evenodd" stroke="none"/>
      <path d="M-8.4 13.7 Q-8.4 10.6 -5.2 10.6 -2.05 10.6 -2.05 13.7 -2.05 16.7 -5.2 16.7 -8.4 16.7 -8.4 13.7" fill="#ffffff" fill-rule="evenodd" stroke="none"/>
      <path d="M-8.1 14.95 L-6.05 15.2 Q-6.05 11.5 -3.65 11.05 -2.05 11.9 -2.05 13.7 -2.05 16.7 -5.2 16.7 -7.2 16.7 -8.1 14.95" fill="#ffb0ff" fill-rule="evenodd" stroke="none"/>
      <path d="M-2.7 11.1 Q-5.8 10.5 -6.25 13.7 -6.65 16.8 -3.3 16.55" fill="none" stroke="#49022e" stroke-linecap="round" stroke-linejoin="round" stroke-width="0.4"/>
      <path d="M5.0 15.55 Q3.3 15.55 2.05 14.4 0.85 13.2 0.85 11.6 0.85 7.6 5.0 7.6 9.2 7.6 9.2 11.6 9.2 13.2 8.0 14.4 6.75 15.55 5.0 15.55" fill="#49022e" fill-rule="evenodd" stroke="none"/>
      <path d="M1.8 11.6 Q1.8 8.6 5.0 8.6 8.15 8.6 8.15 11.6 8.15 14.6 5.0 14.6 1.8 14.6 1.8 11.6" fill="#ffffff" fill-rule="evenodd" stroke="none"/>
      <path d="M2.1 12.9 L4.15 13.15 Q4.15 9.5 6.55 9.0 8.15 9.85 8.15 11.65 8.15 14.65 5.0 14.65 3.0 14.65 2.1 12.9" fill="#ffb0ff" fill-rule="evenodd" stroke="none"/>
      <path d="M7.5 9.0 Q4.45 8.4 4.05 11.6 3.55 14.7 6.9 14.45" fill="none" stroke="#49022e" stroke-linecap="round" stroke-linejoin="round" stroke-width="0.4"/>
      <path d="M-8.4 -2.8 Q-8.8 -4.55 -5.55 -4.0 L2.05 -4.25 Q0.5 -2.4 -2.25 -2.5 L-5.45 -3.0 -8.4 -2.8" fill="#ffe3e3" fill-rule="evenodd" stroke="none"/>
      <path d="M2.1 3.85 L2.1 4.1 Q0.45 4.6 -0.45 5.65 -1.05 6.35 -1.25 7.2 L-1.3 8.1 Q-1.35 8.65 -1.85 8.65 -1.65 7.55 -1.85 6.35 -2.95 4.55 -2.75 4.4 L-0.45 4.45 2.1 3.85" fill="#8af1ff" fill-rule="evenodd" stroke="none"/>
      <path d="M-1.55 6.05 Q-2.5 5.35 -2.25 4.85 L-1.0 4.9 -1.55 6.05" fill="#ffffff" fill-rule="evenodd" stroke="none"/>
      <path d="M-11.2 2.35 Q-10.5 1.25 -9.95 1.1 -8.55 0.55 -5.15 2.4 L-6.75 2.65 -8.15 2.45 Q-9.75 2.7 -10.35 3.2 -11.5 4.0 -11.95 3.95 -12.0 3.4 -11.2 2.35" fill="#8af1ff" fill-rule="evenodd" stroke="none"/>
      <path d="M-8.25 1.4 L-10.05 2.35 -11.15 3.2 -11.25 2.45 Q-11.15 1.9 -9.9 1.4 -8.65 0.9 -8.25 1.4" fill="#ffffff" fill-rule="evenodd" stroke="none"/>
    </g>
  </defs>
</svg>
